X:1
T:Waterloo
M:4/4
L:1/8
K:C
C-E| G3 F G2 c2| G3- F D2 EF| G2F-E C2 B,2| C6|E-F| G2 G2 c2 d2|e-c c2 d2e-d|\
 c2 G2B-cd-B| c6| EF| G2 G2 c2 d2| e2- c2 d2e-d| c2 G2B-cd-B| c6| CE|\
 G G2 F G2 c2| G3 F D2E-F| G2F-E C2 B,2| C6||

